X:1
T:Whither, Pilgrims, Are You Going?
T:Whither, Pilgrims, Are You Going?
T:William Batchelder Bradbury, 1861
T:Frances Jane (Fanny) Crosby, 1859
T:Public Domain Courtesy of the Cyber Hymnal™
T:Public Domain Courtesy of the Cyber Hymnal™
C:William Batchelder Bradbury, 1861
Z:Public Domain
Z:Courtesy of the Cyber Hymnal™
%%score ( 1 2 ) ( 3 4 )
L:1/8
Q:1/4=90
M:3/4
K:C
V:1 treble 
V:2 treble 
V:3 bass 
V:4 bass 
V:1
 [EG]"^Boys"[Ec] | [Ec]2 [DB]2 [B,D][DF] | [FA]2 [EG]2 [EG][Ec] | [DB]3 G [FA][FB] | %4
w: 1.~Whi- ther,|pil- grims, are you|go- ing, Go- ing|each with staff in|
w: 2.~Fear ye|not the way so|lone- ly— You, a|lit- tle, fee- ble|
w: 3.~Tell me,|pil- grims, what you|hope for In that|far off, bet- ter|
w: 4.~Pil- grims,|may we tra- vel|with you To that|bright, that bet- ter|
 [Ec]4"^Girls" [EG][Ec] | [Ec]2 [DB]2 [B,D][DF] | [FA]2 [EG]2 [EG][Ec] | [DB]3 G [FA][FB] | %8
w: hand? We are|go- ing on a|jour- ney, Go- ing|at our king’s com-|
w: band? No, for|friends un- seen are|near us; Ho- ly|an- gels round us|
w: land. Spot- less|robes and crowns of|glo- ry From a|Sav- ior’s lov- ing|
w: land? Come and|wel- come, come and|wel- come, Wel- come|to our pil- grim|
 [Ec]4"^All" [Ec][GB] | [FA]3 [GB] [Ac][FA] | [FA]2 [EG]2 [Ec][GB] | [FA]3 [GB] [Ac][FA] | %12
w: mand. O- ver|hills and plains and|val- leys, We are|go- ing to His|
w: stand. Christ, our|lead- er, walks be-|side us; He will|guard, and He will|
w: hand. We shall|drink of life’s clear|riv- er, We shall|dwell with God for-|
w: band. Come, O|come, and do not|leave us, Christ is|wait- ing to re-|
 [FA]2 [EG]2 [EG][Ec] | [Ge]3 [Gd] [Gc][DB] | [Fd]2 [Ec]2 [FB][FA] | [EG]3 [Ec] [FB][Fd] | [Ec]4 |] %17
w: pal- ace, We are|go- ing to His|pal- ace, Go- ing|to the bet- ter|land.|
w: guide us; He will|guard, and He will|guide us, Guide us|to the bet- ter|land.|
w: ev- er, We shall|dwell with God for-|ev- er, In that|bright and bet- ter|land.|
w: ceive us, Christ is|wait- ing to re-|ceive us, In that|bright, that bet- ter|land.|
V:2
 x2 | x6 | x6 | x3 G x2 | x6 | x6 | x6 | x3 G x2 | x6 | x6 | x6 | x6 | x6 | x6 | x6 | x6 | x4 |] %17
V:3
 [C,C][C,G,] | G,2 G,2 [G,,G,][G,,G,] | [C,G,]2 [C,C]2 [C,C][E,G,] | [D,G,]3 [E,C] [F,C]G, | %4
 [C,G,]4 [C,C][C,G,] | [A,,G,]2 [A,,G,]2 [G,,G,][G,,G,] | [C,G,]2 [C,C]2 [C,C][E,G,] | %7
 [D,G,]3 [E,G,] [G,C]G, | [C,G,]4 C,E, | F,3 F, F,F, | C,2 C,2 C,E, | F,3 F, F,F, | %12
 C,2 C,2 [C,C][C,C] | [C,C]3 [D,B,] [E,C]G, | [B,,G,]2 [C,G,]2 [F,A,][F,A,] | %15
 [G,C]3 G, [G,,G,][G,,G,] | [C,G,]4 |] %17
V:4
 x2 | G,2 G,2 x2 | x6 | x5 G, | x6 | x6 | x6 | x5 G, | x6 | x6 | x6 | x6 | x6 | x5 G, | x6 | %15
 x3 G, x2 | x4 |] %17

